X:370
T: Dunboyne Slide
S: B.Breathnach: "Ceol Rince na hEireann" II/81 (gan ainm)
Z: B.Black
L: 1/8
M: 6/8
R: slide
Q: 375
K: D
(3A/B/c/|: d3 e2d|c2E EFG|ABA A2G|F2E DFA|
d3 e2d|c2E EFG|ABA GFE|1 D3 D3 :|2 D3 D2||
e|f2d A2d|f2g agf|e2c A2c|e2f gfe|
f2d A2d|f2g agf|ecA ABc|d3 d2 :|

